communes/4202.svg

<?xml version="1.0" encoding="UTF-8"?>
<!DOCTYPE svg  PUBLIC '-//W3C//DTD SVG 1.1//EN'  'http://www.w3.org/Graphics/SVG/1.1/DTD/svg11.dtd'>
<svg width="520" height="585" version="1.1" viewBox="0 0 100 112.5" xmlns="http://www.w3.org/2000/svg">
<title>Wappen von Meisterschwanden</title>
<desc>Wappen der Schweizer Gemeinde Meisterschwanden, Kanton Aargau</desc>
<defs>
<clipPath id="a">
<path d="m2 2h96v60.5a48 48 0 0 1-96 0z"/>
</clipPath>
</defs>
<path d="m1 1h98v61.5a49 49 0 0 1-98 0z" fill="#0093dd" stroke="#000" stroke-width="2"/>
<path d="m0.2 112v-41c8.3 0 12.4-8.7 8.3-17.5s0-17.5 8.3-17.5 12.4 8.7 8.3 17.5 0 17.5 8.3 17.5 12.4-8.7 8.3-17.5 0-17.5 8.3-17.5 12.4 8.7 8.3 17.5 0 17.5 8.3 17.5 12.4-8.7 8.3-17.5 0-17.5 8.3-17.5 12.4 8.7 8.3 17.5 0 17.5 8.3 17.5v41" clip-path="url(#a)" fill="#fff" stroke="#000"/>
</svg>

<?xml version="1.0" encoding="utf-8" standalone="no"?>
<!DOCTYPE svg PUBLIC "-//W3C//DTD SVG 1.1//EN" "http://www.w3.org/Graphics/SVG/1.1/DTD/svg11.dtd">
<svg version="1.1"
   xmlns="http://www.w3.org/2000/svg"
   width="520" height="585" viewBox="0 0 100 112.5">
  <title>Wappen von Meisterschwanden</title>
  <desc>Wappen der Schweizer Gemeinde Meisterschwanden, Kanton Aargau</desc>
  <defs>
    <clipPath id="cpSchild">
      <path d="M 2,2 H 98 V 62.5 A 48 48 0 0 1 2,62.5 z" />
    </clipPath>
  </defs>
  <path d="M 1,1 H 99 V 62.5 A 49 49 0 0 1 1,62.5 z" stroke="black" stroke-width="2" fill="#0093dd" />
  <path d="M .2,112 V 71 c 8.3,0 12.4,-8.7 8.3,-17.5 -4.1,-8.8 0,-17.5 8.3,-17.5 8.3,0 12.4,8.7 8.3,17.5 -4.1,8.8 0,17.5 8.3,17.5 8.3,0 12.4,-8.7 8.3,-17.5 -4.1,-8.8 0,-17.5 8.3,-17.5 8.3,0 12.4,8.7 8.3,17.5 -4.1,8.8 0,17.5 8.3,17.5 8.3,0 12.4,-8.7 8.3,-17.5 -4.1,-8.8 0,-17.5 8.3,-17.5 8.3,0 12.4,8.7 8.3,17.5 -4.1,8.8 0,17.5 8.3,17.5 V 112" stroke="black" stroke-width="1" fill="white" clip-path="url(#cpSchild)" />
</svg>
